X:1
T:Title
T:Gigue from BWV 830 - Partita VI
T:J. S. Bach
T:Ternarisation according to Little and Jenne
C:Composer
%%score { ( 1 3 5 6 ) | ( 2 4 ) }
L:1/8
M:12/8
K:G
V:1 treble nm="ハープシーコード"
V:3 treble 
V:5 treble 
V:6 treble 
V:2 bass 
V:4 bass 
V:1
 z12 | z12 | z2 B ^c2 ^A g2 e f2 ^d | c'2 ^a b2 e d2 z P^c3 | B^c d- d =F d- d B =c- c _E c- | %5
 cA B- B f g-g G A- A e f- | f/F/Gc- cA B-B ^G A- A =D d- | dB c- c A B- B E e- e ^c ^d | %8
 e2 g f2 b e2 a ^c2 g | f2 f e2 a d2 g c2 =f | !turn!d e2 A d2 G c2 F B2 | %11
 E A2- ADG (3G/F/E/ c2- (3c/B/A/ e2- | e/d/^c/d/c/B/ c/d/e/d/c/B/ (3^A/^G/F/ g2- gef- | %13
 f^de- eAa- afg- gef- | fBb- b^gP^a b =g2 e f2 | ^d e2- ea^g a f2 =d e2 | ^c d2- dgf gdg- gef- | %17
 f^de- e^cd e/f/g/a/b/c'/ =d/e/=f/g/a/b/ | c/d/e/=f/g/a/ B/c/d/e/f/d/ c2 B c2 c | %19
 B2 z A2 F E2 c d2 B | ^g2 z a2 ^d e/=d/c/B/A/G/ z/ A/B/c/B/A/ | G2 G- G2 G- G2 F- F2 =F- | %22
 F2 E- E2 E- E2 ^D- D2 G | z2 A z2 ^A z/ B/F/^D/B,/^A,/ (3B,/D/F/ B2 :: z12 | z12 | %26
 z2 F E2 G ^A,2 ^C B,2 D |[I:staff +1] ^E,2 G, F,2 ^A, B,2[I:staff -1] z P^C3 | %28
 D>GF/E/ DFB,- B,^G,=F- FD^G- | G>=FE/D/ CE[I:staff +1]A,- A,F,[I:staff -1]_E- EC^F/C/ | %30
 z2 B A2 c ^D2 F E2 G | ^A,2 C B,2 ^D E2 z PF3 | GEe- e^cd- d/c/B/c/B/A/ a/g/f/g/f/e/ | %33
 fAd- dBc- c/B/A/B/A/G/ g/=f/e/f/e/d/ | e2 e =f2 d e2 c d2 B | c2 A B2 ^G A2 B c ^c2 | %36
 ^d2 e d2 e f2 b a2 c' | ^d2 f e2 g ^A2 c B2 d | e2 z Pf3 g3- g/^d/ =f2- | %39
 f=f/e/d c3- cc/B/A ^GBd- | dBc/a/ daB/^g/ a^de- ede- | e/^d/^c/d/c/B/ b/a/g/a/g/f/ g2 g c2 =d | %42
 e2 z z3 z2 e c'2 a | b2 g a2 f g3- g/f/e/f/g/a/ | ^d>ba/g/ f/a/ c'2- c'c/B/A GBe- | %45
 eG/F/E ^DFA- AFG/e/ AeA/^d/ | e>cB/A/ G B2- B2 _B- BG^c- | c>_BA/G/ =F A2- A2 _A- AF=B- | %48
 B^GA/E/ ^F2 ^D c2 A B2 G | =f2 ^d e2 A G2 z F3 | E2 ^G- G2 B- B2 A- A2 d- | %51
 d2 c- c2 ^d z/ e/B/^G/E/^D/ (3E/G/B/ e2 :| %52
V:2
 z2[I:staff -1] E F2 ^D c2 A B2 ^G | =f2 ^d e2 A G2[I:staff +1] z[I:staff -1] PF3 | %2
 EF G- GE F F^DE- E A, A- | A F G- GEF- F B, B- B ^G ^A | B2 A ^G2 E A2 =G F2 D | %5
 G2 F E2 ^C F2 E ^D2 B, |[I:staff +1] z2 E, F,2 ^D, C2 A, B,2 ^G, | =F2 ^D E2 A, G,2 z PF,3 | %8
 E,E,,E,- E,^C,D,- D,/C,/B,,/C,/B,,/A,,/ A,/G,/F,/G,/F,/E,/ | %9
 D,D,,D,- D,B,,C,- C,/B,,/A,,/B,,/A,,/G,,/ G,/=F,/E,/F,/E,/D,/ | C,G,C- CA,B,- B,G,A,- A,F,G,- | %11
 G,E,F, G, E,2 ^C, ^D,2 E, C,2 | ^A,,2 B,, E,2 ^E, F,2 z ^A,2 z | B,2 z z3 E,2 z D,2 z | %14
 G,2 F, E,2 F, B,B,,B,- B,^G,A,- | A,/^G,/F,/G,/F,/E,/ E/D/^C/D/C/B,/ A,A,,A,- A,F,=G,- | %16
 G,/F,/E,/F,/E,/D,/ D/C/B,/C/B,/A,/ G,B,E A,2 D | G,2 C F,2 B, E,B,C- CA,B,- | %18
 B,^G,A,- A,F,A, A,/=G,/F,/G,/F,/E,/ F,/G,/A,/G,/F,/E,/ | %19
 ^D,B,,E,- E,A,,B,,- B,,^G,,A,,- A,,D,,=D,- | D,B,,C,- C,A,,B,,- B,,E,,E,- E,^C,^D, | %21
 E,2 D ^C2 A, D,2 =C B,2 G, | C,2 B, A,2 F, B,,2 A, G,2 E, | ^D,2 B, G,2 E, B,,6 :: %24
 z2 B, A,2 C ^D,2 F, E,2 G, | ^A,,2 C, B,,2 ^D, E,2 z PF,3 | G,>CB,/A,/ G,B,E,- E,^C,D,- D,F,B,,- | %27
 B,,^G,,^A,,- A,,^C,E,- E,C,D,/B,/ E,B,F,/^A,/ | B,3- B,>A,^G,/F,/ E,2 D, PC,2 B,, | %29
 A,, A,2- A,>G,F,/E,/ D,2 C, B,,2 A,, | G,,B,,E,/D,/ C,E,A,,- A,,F,,G,,- G,,B,,E,,- | %31
 E,,^C,,^D,,- D,,F,,A,,- A,,F,,G,,/E,/ A,,E,B,,/^D,/ | E,2 G, F,2 B, E,2 A, ^C,E,/A,,/C, | %33
 D,2 F, E,2 A, D,2 G, B,,D,/G,,/B,, | C,E,A, D,2 G, C,2 =F, B,,2 E, | %35
 A,,2 D,- D,^G,,C,- (3C,/B,,/A,,/ =F,2- (3F,/E,/D,/ A,2- | %36
 A,/G,/F,/G,/F,/E,/ F,/G,/A,/G,/F,/E,/ B,2 z z3 | z12 | z3 z3 z2 E D2 =F | %39
 ^G,2 B, A,2 C ^D,2 =F, E,2 G, | A,2 z B,3 C2 E A,2 C | F,2 A, ^D,F,/B,,/D, E,2 E,, E,2 G, | %42
 ^C,2 E, ^A,,C,/F,,/A,, B,,/C,/^D,/E,/F,/G,/ =A,,/B,,/=C,/D,/E,/F,/ | %43
 G,,/A,,/B,,/C,/D,/E,/ F,,/G,,/A,,/B,,/C,/D,/ E,,2 E, A,,2 C, | B,,2 z z3 B,2 z z3 | %45
 B,,2 z z2 B, C2 B, A,2 B, | E,3- E,>D,^C,/B,,/ A,,2 G,, P=F,,2 E,, | %47
 D,, D,2- D,>C,B,,/A,,/ G,,2 =F,, PE,,2 D,, | C,,2 z z2 B,, E,2 z z2 E, | %49
 A,2 z G,2 z C,2 B,, A,, B,,2 | E,,2 B, ^G,2 E, C,2 =F, D,2 B,, | ^G,,2 E, C,2 A,, E,,6 :| %52
V:3
 x12 | x12 | x12 | x12 | x12 | x12 | E3 ^D2 F E2 c =F2 B | ^G2 A/F/ =G2 ^d e2 c A2 B | %8
 G B2 A B2 ^G A2- AeA- | A B2 G A2 F G2- GdG- | G2 E F2 E E2 C D2 B, | %11
 C2[I:staff +1] A, B,2 G, A,2 F, G,2 E, | x12 |[I:staff -1] G2 E F2 ^D c2 ^A B z E | %14
 D2 z[I:staff +1] P^C3 B,2[I:staff -1] d ^c2 F | B2 =d ^G z d ^c2 c B2 E | A2 =c F z c B2 B c2 A | %17
 B2 G A2 F G z E =F2 D | E2 C D2 B,[I:staff +1] A,[I:staff -1]EA- AEA- | %19
 A/G/F/G/F/E/ F2 ^D c2 A B2 ^G | f2 ^d e2 A G2 z F3- | F^DE- E_B,E- E^C=D- D_A,D- | %22
 DB,C- CF,C- C^A,B,- B,B,E | z B,F z ^CG z3 z3 :: x12 | x12 | x12 | x12 | x12 | x12 | %30
[I:staff +1] B,2 G,- G,2 F,- F,2 B,- B,2 G,- | %31
 G,[I:staff -1] z[I:staff +1] F,- F,2[I:staff -1] z z2[I:staff +1] B, C2 B,- | %32
 B,[I:staff -1] z B A2 F ^G2 z z3 | z2 A G2 E F2 z z3 | z Gc- cAB- B^GA- AF=G- | %35
 GE=F- FDE- ED^G A2 =G | F2 B- B2 ^c ^d>BA/G/ F/A/ =c2- | cc/B/A GBE- EG/F/E ^DF^A- | %38
 AFG/e/ =AeB/^d/ E>ed/c/ B3- | B3- BEA- A2 z z2 =F | E2 A =F2 D E2 c ^F2 G | A2 z z3 z ^AB- BAB- | %42
 B/^A/^G/A/G/F/ f/e/^d/e/d/^c/ dBg- gef- | f^de- e^cd e/=d/=c/B/c/d/ c3 | z2 B A2 c ^D2 F E2 G | %45
 ^A,2 C B,2 ^D E2 z F3 | G3 z2 E- E3- E3- | E z2 z2 D- D3- D3- | %48
 D2 C z[I:staff +1] A,B,- B,^G,A,- A,=F,^D- | DB,C- CA,B,- B,E,[I:staff -1]E- E^C^D | %50
 E D2- D D2- D C2- CB,^G- | G2 A- A2 c z6 :| %52
V:4
 x12 | x12 | x12 | x12 | x12 | x12 | x12 | x12 | x12 | x12 | x12 | x12 | %12
 F,3 G, z ^G, F, z B, ^C2 ^A, | x12 | x12 | x12 | x12 | x12 | x12 | x12 | x12 | x12 | x12 | x12 :: %24
 x12 | x12 | x12 | x12 | x12 | x12 | x12 | x12 | x12 | x12 | x12 | x12 | x12 | x12 | x12 | x12 | %40
 x12 | x12 | x12 | x12 | x12 | x12 | x12 | x12 | x12 | x12 | x12 | x12 :| %52
V:5
 x12 | x12 | x12 | x12 | x12 | x12 | x12 | x12 | x12 | x12 | x12 | x12 | x12 | x12 | x12 | x12 | %16
 x12 | x12 | x12 | x12 | x12 | x12 | x12 | x12 :: x12 | x12 | x12 | x12 | x12 | x12 | x12 | x12 | %32
 x12 | x12 | x12 | x12 | x12 | x12 | x12 | x12 | x12 | x12 | x12 | x12 | x12 | x12 | %46
 z3 z3 E ^C2- C G2- | G z2 z3 D B,2- B, =F2- | F2 z2 x8 | x12 | z2 =F- F2 ^G- G2 E- E2 B- | %51
 B2 z z3 z6 :| %52
V:6
 x12 | x12 | x12 | x12 | x12 | x12 | x12 | x12 | x12 | x12 | x12 | x12 | x12 | x12 | x12 | x12 | %16
 x12 | x12 | x12 | x12 | x12 | x12 | x12 | x12 :: x12 | x12 | x12 | x12 | x12 | x12 | x12 | x12 | %32
 x12 | x12 | x12 | x12 | x12 | x12 | x12 | x12 | x12 | x12 | x12 | x12 | x12 | x12 | x12 | x12 | %48
 x12 | x12 | x12 | F E2- E F2 z6 :| %52

